svgs/sharp-solid/boxes-stacked.svg

<svg xmlns="http://www.w3.org/2000/svg" viewBox="0 0 576 512"><!--! Font Awesome Pro 6.6.0 by @fontawesome - https://fontawesome.com License - https://fontawesome.com/license (Commercial License) Copyright 2024 Fonticons, Inc. --><path d="M248 0L160 0l0 224 256 0L416 0 328 0l0 96-80 0 0-96zM104 256L0 256 0 512l288 0 0-256-104 0 0 96-80 0 0-96zM576 512l0-256-104 0 0 96-80 0 0-96-72 0 0 256 256 0z"/></svg>

<svg xmlns="http://www.w3.org/2000/svg" viewBox="0 0 576 512"><!--! Font Awesome Pro 6.4.0 by @fontawesome - https://fontawesome.com License - https://fontawesome.com/license (Commercial License) Copyright 2023 Fonticons, Inc. --><path d="M248 0H160V224H416V0H328V96H248V0zM104 256H0V512H288V256H184v96H104V256zM576 512V256H472v96H392V256H320V512H576z"/></svg>
